src/assets/svg/icons/fa/nuevos/classic/thin/monkey classic thin.svg

<svg xmlns="http://www.w3.org/2000/svg" viewBox="0 0 576 512"><!--! Font Awesome Pro 6.4.0 by @fontawesome - https://fontawesome.com License - https://fontawesome.com/license (Commercial License) Copyright 2023 Fonticons, Inc. --><path d="M104 16c-48.6 0-88 39.4-88 88V376c0 66.3 53.7 120 120 120h40V431c0-97.8 61-184.5 151.8-218c-10.2-13.1-17.6-28.5-21.2-45.3C278.2 165 256 141.1 256 112c0-30.9 25.1-56 56-56h7c19.4-33.5 55.6-56 97-56s77.7 22.5 97 56h7c30.9 0 56 25.1 56 56c0 29.1-22.2 53-50.5 55.7C514.6 218.2 469.7 256 416 256c-29.6 0-56.5-11.5-76.5-30.2C251.6 255.3 192 337.8 192 431v65H480c8.8 0 16-7.2 16-16s-7.2-16-16-16H440c-4.2 0-7.6-3.2-8-7.3l-.7-8c-3.8-45.6-41.9-80.7-87.7-80.7H328c-4.4 0-8-3.6-8-8s3.6-8 8-8h15.7c37.1 0 69.9 19.5 88.3 49.1V296c0-3.3 2-6.2 5-7.4s6.5-.4 8.8 2l93.2 99c23.7 25.2 37 58.6 37 93.2V504c0 4.4-3.6 8-8 8s-8-3.6-8-8V482.8c0-30.6-11.7-60-32.6-82.2L448 316.2V448h32c17.7 0 32 14.3 32 32s-14.3 32-32 32H136C60.9 512 0 451.1 0 376V104C0 46.6 46.6 0 104 0h32c48.6 0 88 39.4 88 88s-39.4 88-88 88H104c-4.4 0-8-3.6-8-8s3.6-8 8-8h32c39.8 0 72-32.2 72-72s-32.2-72-72-72H104zM512 144V112c0-53-43-96-96-96s-96 43-96 96v32c0 53 43 96 96 96s96-43 96-96zM311.4 72c-21.8 .3-39.4 18.1-39.4 40c0 19.4 13.9 35.6 32.2 39.2c-.2-2.4-.2-4.8-.2-7.2V112c0-14.1 2.6-27.6 7.4-40zM528 112v32c0 2.4-.1 4.9-.2 7.2c18.4-3.6 32.2-19.8 32.2-39.2c0-21.9-17.6-39.6-39.4-40c4.7 12.4 7.4 25.9 7.4 40zm-160 0a16 16 0 1 1 32 0 16 16 0 1 1 -32 0zm80-16a16 16 0 1 1 0 32 16 16 0 1 1 0-32zm-96 16c0 17.4 11.1 32.2 26.7 37.7c3.2 1.1 5.3 4.2 5.3 7.5V168c0 17.7 14.3 32 32 32s32-14.3 32-32V157.3c0-3.4 2.1-6.4 5.3-7.5c15.5-5.5 26.7-20.3 26.7-37.7c0-22.1-17.9-40-40-40H392c-22.1 0-40 17.9-40 40zm40-56h48c30.9 0 56 25.1 56 56c0 22.3-13.1 41.6-32 50.6V168c0 26.5-21.5 48-48 48s-48-21.5-48-48v-5.4c-18.9-9-32-28.3-32-50.6c0-30.9 25.1-56 56-56z"/></svg>

<svg xmlns="http://www.w3.org/2000/svg" viewBox="0 0 576 512"><path d="M400 112C400 120.8 392.8 128 384 128C375.2 128 368 120.8 368 112C368 103.2 375.2 96 384 96C392.8 96 400 103.2 400 112zM432 112C432 103.2 439.2 96 448 96C456.8 96 464 103.2 464 112C464 120.8 456.8 128 448 128C439.2 128 432 120.8 432 112zM440 56C470.9 56 496 81.07 496 112C496 134.3 482.9 153.6 464 162.6V168C464 194.5 442.5 216 416 216C389.5 216 368 194.5 368 168V162.6C349.1 153.6 336 134.3 336 112C336 81.07 361.1 56 392 56H440zM378.7 149.7L384 151.6V168C384 185.7 398.3 200 416 200C433.7 200 448 185.7 448 168V151.6L453.3 149.7C468.9 144.2 480 129.4 480 112C480 89.91 462.1 72 440 72H392C369.9 72 352 89.91 352 112C352 129.4 363.1 144.2 378.7 149.7zM104 16C55.4 16 16 55.4 16 104V376C16 442.3 69.73 496 136 496H176V431C176 333.3 237 246.6 327.8 212.1C317.5 199.9 310.1 184.5 306.5 167.7C278.2 164.1 256 141.1 256 112C256 81.07 281.1 56 312 56H318.1C338.3 22.52 374.5 0 416 0C457.5 0 493.7 22.52 513 56H520C550.9 56 576 81.07 576 112C576 141.1 553.8 164.1 525.5 167.7C514.6 218.2 469.7 256 416 256C386.4 256 359.5 244.5 339.5 225.8C251.6 255.3 192 337.8 192 431V496H480C488.8 496 496 488.8 496 480C496 471.2 488.8 464 480 464H440C435.8 464 432.4 460.8 432 456.7L431.4 448.7C427.6 403.1 389.4 368 343.7 368H328C323.6 368 320 364.4 320 360C320 355.6 323.6 352 328 352H343.7C380.7 352 413.6 371.5 432 401.1V296C432 292.7 434 289.8 437 288.6C440.1 287.4 443.6 288.1 445.8 290.5L539 389.6C562.8 414.8 576 448.1 576 482.8V504C576 508.4 572.4 512 568 512C563.6 512 560 508.4 560 504V482.8C560 452.2 548.3 422.8 527.4 400.5L448 316.2V448H480C497.7 448 512 462.3 512 480C512 497.7 497.7 512 480 512H136C60.89 512 0 451.1 0 376V104C0 46.56 46.56 0 104 0H136C184.6 0 224 39.4 224 88C224 136.6 184.6 176 136 176H104C99.58 176 96 172.4 96 168C96 163.6 99.58 160 104 160H136C175.8 160 208 127.8 208 88C208 48.24 175.8 16 136 16L104 16zM512 112C512 58.98 469 16 416 16C362.1 16 320 58.98 320 112V144C320 197 362.1 240 416 240C469 240 512 197 512 144V112zM272 112C272 131.4 285.9 147.6 304.2 151.2C304.1 148.9 304 146.4 304 144V112C304 97.91 306.6 84.43 311.4 72.01C289.6 72.35 272 90.13 272 112zM528 144C528 146.4 527.9 148.9 527.8 151.2C546.1 147.6 560 131.4 560 112C560 90.13 542.4 72.35 520.6 72.01C525.4 84.43 528 97.91 528 112V144z"/></svg>
